X: 8619
T: Crooked Bawbee, The
R: waltz
M: 3/4
K: Gmajor
|:G>B d g>f e|dAc c<B d|G>B d ceg|
B>c A/F/ G2D|B>A G G>B d|cde d<Bd|
gce d>GA|1 B>cA/F/ G2D:|2 B>c A/F/ G2G/A/||
|:B>A B c>B c|f>e d d<B G|
G>F G G>F G|B>A G A2G/A/|
B>A B c>B c|f>e d d<B G|
E>G G D>G G|1 F>G A/F/ G2G/A/:|2 F>G A/F/G2D||

